!!!OTL@@DE: Du, du liegst mir im Herzen
!!!ONB: Volksweise (Um 1820)
!!!ODT: ~1820
!!!OMD: Sehr M&auml;ssig
!!!LYR: Volkslied (Um 1820)
!!!LDT: ~1820
!!!OCL: Erk, Ludwig
!!!GCO: Deutscher Liederschatz, Band 1
**kern	**kern	**kern
*staff3	*staff2	*staff1
*Ipiano	*Ipiano	*Ivox
=1-	=1-	=1-
*clefF4	*clefG2	*clefG2
*k[b-]	*k[b-]	*k[b-]
*F:	*F:	*F:
*M3/8	*M3/8	*M3/8
*MM88	*MM88	*MM88
4.F\ 4.c\	4.f/ 4.a/	4.a/
=2	=2	=2
4.F\ 4.c\	4.f/ 4.a/	4.a/
=3	=3	=3
4F\ 4c\	8f/ (8a/L	8a/
.	8e/ 8g/)	8g/
8F\ 8c\	8f/ 8a/J	8a/
=4	=4	=4
*	*^	*
4.C\ 4.c\	4a/ 4cc/	4.e\	(8cc\L
.	.	.	8b-\J)
.	8g/ 8b-/	.	8b-\
*	*v	*v	*
=5	=5	=5
4.C\ 4.c\	4.e/ 4.g/	4.g/
=6	=6	=6
4.C\ 4.c\	4.e/ 4.g/	4.g/
=7	=7	=7
*	*^	*
4C\ 4c\	(8g/L	4e\	8g/
.	8cc/	.	8cc\
8E\ 8c\	8b-/J)	8g\	8b-\
*	*v	*v	*
=8	=8	=8
4.F\ 4.c\	4.f/ 4.a/	4a/
.	.	8r
=9	=9	=9
4.F\ 4.c\	4.f/ 4.a/	4.a/
=10	=10	=10
4.F\ 4.c\	4.f/ 4.a/	4.a/
=11	=11	=11
4F\ 4c\	8f/ (8a/L	8a/
.	8e/ 8g/)	8g/
8F\ 8c\	8f/ 8a/J	8a/
=12	=12	=12
*	*^	*
4.C\ 4.c\	4a/ (4cc/	4.e\	(8cc\L
.	.	.	8b-\J)
.	8g/ 8b-/)	.	8b-\
=13	=13	=13	=13
4C\ 4c\	8g/L	4e\	8g/
.	8a/	.	8a/
8C\ 8G\	8b-/J	8e\	8b-\
=14	=14	=14	=14
4C\ 4A\	8dd/L	4f\	8dd\
.	8cc/	.	8cc\
8C/	8e/J	8B-\	8b-\
*	*v	*v	*
=15	=15	=15
8FF/L	[4.A/ [4.c/ [4.f/	4.a/
8AA/	.	.
8C/J	.	.
=16	=16	=16
8F\L	8A/] 8c/] 8f/]	4.r
8G\	8r	.
8A\J	8r	.
=17	=17	=17
4.B-\ 4.d\	4.f/ 4.dd/	4.dd\
=18	=18	=18
4.A\ 4.c\	4.f/ 4.cc/	4cc\
.	.	8r
=19	=19	=19
4.G\ 4.c\	4.e/ 4.b-/ 4.cc/ 4.ee/	4.ee\
=20	=20	=20
4.F\ 4.c\	4.f\ 4.a\ 4.cc\ 4.ff\	4ff\
.	.	8r
=21	=21	=21
*	*^	*
4B-\ 4d\	8g/L	4f\	8g/
.	8a/	.	8a/
8BB-\ 8G\	8b-/J	8f\	8b-\
=22	=22	=22	=22
4C\ 4A\	8dd/L	4f\	8dd\
.	8cc/	.	8cc\
8C/	8e/J	8B-\ 8c\	8e/
*	*v	*v	*
=23	=23	=23
4F\	[4.A/ [4.c/ [4.f/	[4.f/
8C/	.	.
=24	=24	=24
8FF/	8A/] 8c/] 8f/]	8f/]
8r	8r	8r
8r	8r	8r
==	==	==
*-	*-	*-
!!!ENC: Craig Stuart Sapp
!!!END: 2004/05/26/
!!!EFL: 030/651
